X:180
T:King's Delight,The. (p)1665.PLFD.180
M:6/4
L:1/4
Q:3/4=90
S:Playford, Dancing Master,2nd Supp. to 3rd Ed.,1665
O:England
H:166
Z:Chris Partington
K:D
d|d2da2a|f>efd>ed|e>fea>ba/g/|f3e2:|
|:d|d2da2a|f>efdef|g>agf>ef|
e>deABc|def(g/f)(e/d)|e3d2:|
